X: 1
T:Pride  of the Ball -- Reel
M:C|
L:1/8
R:reel
B:Ryan's Mammoth Collection
N:281
N:similar to The Swallowtail
Z:Contributed by Ray Davies,  ray:davies99.freeserve.co.uk
K:G
u(gf)|\
eA((3cBA) eA((3cBA) | Bdef gedB | G2(BG) (dG)(BG) | Bdef g2(fg) |
eA((3cBA) eA((3cBA) | Bdef g2(fg) | afge dfed | cAB^G A2z2 :|
|:va2 (a^g) a2(ed) | cdef gfge | G2(BG) (dG)(BG) | Bdef g2(fg) |
   a2 (a^g) a2(ed) | cdef g2(fg) | afge dfed | cAB^G A2z2 :|
